X:19
T:I Burried My Wife and Danced on Her Grave
R:jig
O:Ireland
M:6/8
L:1/8
K:D
ADA  D   D2 | GAd B=cA | F  (G2 G)BA | GFA  AGE |
ADA  D   F2 | GAd B=cA | F  (G2 G)BA | GAF A D2 :|
A d2 eg/fe/ | dfa  fgf | e d2 eg/fe/ | ddc  Adc |
A d2 eg/fe/ | dfa  fgf | edc     ABA | GAF A D2 :|
